src/22/actions/view-task.svg

<svg xmlns="http://www.w3.org/2000/svg" viewBox="0 0 22 22">
  <defs id="defs3051">
    <style type="text/css" id="current-color-scheme">
      .ColorScheme-Text {
        color:#5d656b;
      }
      </style>
  </defs>
 <path 
    style="fill:currentColor;fill-opacity:1;stroke:none" 
    d="m3 3v16h10 5 1v-6-10h-2v3h-2v-3h-8v3h-2v-3h-2m1 4h14v6 5h-5-9v-11m10.292969 2l-4.591797 4.591797-1.146484-1.146485-.707031.707032 1.845703 1.847656.005859-.007812.007812.007812 5.292969-5.292969-.707031-.707031"
	class="ColorScheme-Text"
    />  
</svg>

<svg xmlns="http://www.w3.org/2000/svg" viewBox="0 0 22 22"><path d="M3 3v16h16V3h-2v3h-2V3H7v3H5V3H3m1 4h14v11H4V7m10.293 2l-4.592 4.592-1.146-1.147-.707.707L9.693 15l.006-.008.008.008L15 9.707 14.293 9" fill="currentColor" color="#5d656b"/></svg>
